X: 1
T: H\aargal\aaten
O: trad
R: hambo
Z: John Chambers <jc@trillian.mit.edu>
N: There are several incompatible versions of this tune.
N: It is played in Gm, Am, Dm and sometimes in major.
M: 3/4
L: 1/8
K: Am
|: "Am"e2 e>f e>d | d>c c>E A>c | "E7"c>B B>E ^G>B |1,3 "Am"A>^G A>B c>d :|2,4 "Am"Az "fine"A4 :|
|: "C"c>d e2 c2 | "G7"d>e f2 d2 | g2 g>a g>f | "C"f>e e4 \
|  "C"c>d e2 c2 | "G7"d>e f2 d2 | g2 g>a g>f | "E7"f>e e4 ||
|| "Am"e2 e>f e>d | d>c c2 A>c | "E7"c>B B>E ^G>B | "Am"A>^G A>B c>d \
|  "Am"e2 e>f e>d | d>c c2 A>c | "E7"c>B B>E ^G>B | "Am"Az A4 :|
|: "Am"A2 {BA}^G2 A2 | "E7"B2 {cB}A2 B2 | "Am"c>d c>B c>d | "E7"e2- e>d c>B \
|  "Am"A2 {BA}^G2 A2 | "E7"B2 {cB}A2 B2 | "Am"c>d c>B c>d | "C"e2 f2 =f2 ||
|| "G7"g>f d2 (3def | "C"e>d c4 | "E7"e>d B2 (3Bcd | "Am"c>B A4 \
|  "Dm"a>f d2 (3def | "Am"e>c A2 A>c | "E7"B2 B>d c>B | "Am"Az A4 :|
